X:120
T: WIR FAHREN AUF DIE SEE
N: K2169C
O: Europa, Mitteleuropa, Deutschland, Rheinland, Bacharach
R: Kinder - Lied, Reigen, Tanz - Spiel
M: 4/4
L: 1/4
K: G
 | BBBB | Bcd2
ecBA | A2Gz
BBBB | Bcd2
ecBA | A2Gz
d2B2 | d2B2 | c2e2 | d2z
d | d2Bd | d2BB | c2e2 | d2z2

